X:1
T:Psalm 34
T:F Major         Israel Holdroyd, 1722
T:Thomas Sternhold, 1547 Old Version (Psalm 34)             86. 86. (C. M.)                   
T:Transcribed from The Spiritual Man's Companion, 1724
T:No Copyright.  Transcribed from Suffolk Harmony, 1786.
Z:No Copyright.  Transcribed from Suffolk Harmony, 1786.
%%score [ 1 2 3 4 ]
L:1/8
Q:1/4=120
M:2/2
K:F
V:1 treble nm="Tr." snm="Tr."
V:2 treble nm="C." snm="C."
V:3 treble-8 nm="T." snm="T."
V:4 bass nm="B." snm="B."
V:1
 F4 F2 E2 | F4 A4 | G2 G2 A4 | A4 F2 A2 | G4 G4 | G8 | G4 F2 GA | (B2 A2) G4 | F2 F2 E4 | %9
 E4 F2 A2 | G4 E4 | F8 |] %12
V:2
"_I    will  give  laud  and   honor  both     Un – to  the  Lord  al  –  ways:    Al  –  so       my      mouth  for     ev  –  er  more    Shall  speak     un  –  to       his    praise." C4 C2 C2 | %1
 C4 F4 | D2 C2 C4 | C4 D2 E2 | D4 D4 | E8 | E4 C2 DE | F4 E4 | D2 C2 C4 | C4 A,B, C2 | D4 C4 | %11
 C8 |] %12
V:3
 F4 F2 G2 | A4 F4 | G2 E2 F4 | A4 B2 c2 | d4 =B4 | c8 | c4 A2 Bc | d4 c4 | B2 A2 G4 | G4 F2 C2 | %10
 (B2 A2) G4 | F8 |] %12
V:4
"_______________________________________________________________________________________________________\nThis tune was composed by Israel Holdroyd in 1722, and called \nRochester\n from 1732. It has appeared, with a variety of \n  words and arrangements, in several hundred  tunebooks since 1722 (every two years over that time); and in America \n  since 1761. Notably, it appeared in \nKentucky Harmony \nin 1816, \nWyeth's Repository of Sacred Music\n in 1816, and Allen \n  Carden's \nMissouri Harmony\n in 1820.  It appeared in \nThe Sacred Harp\n (page 30) from 1844 to the present with Isaac Watts' \n  words \nCome let us join our cheerful songs\n, and \nSouthern Harmony\n (page 279) from 1847, with Isaac Watts' words, \n  There is a land of pure delight." F,4 F,2 C,2 | %1
 F,4 F,4 | B,,2 C,2 F,,4 | F,4 D,2 C,2 | G,4 G,,4 | C,8 | C,4 F,E, D,C, | B,,4 C,4 | D,E, F,2 C,4 | %9
 C,4 D,2 A,,2 | B,,4 C,4 | F,,8 |] %12

